svg/download_multiple_outline.svg

<svg xmlns="http://www.w3.org/2000/svg" viewBox="0 0 24 24"><path d="m12 14 7-7h-4V1H9v6H5zm0-2.83L9.83 9H11V3h2v6h1.17zM5 16v2h14v-2zm0 6v-2h14v2z"/></svg>

<svg xmlns="http://www.w3.org/2000/svg" id="mdi-download-multiple-outline" viewBox="0 0 24 24"><path d="M12 14L19 7H15V1H9V7H5L12 14M12 11.17L9.83 9H11V3H13V9H14.17L12 11.17M5 16V18H19V16H5M5 22V20H19V22H5Z" /></svg>
